packages/sources/icons/src/vitamix/secure-payment-line.svg

<svg width="16" height="16" viewBox="0 0 16 16" fill="none" xmlns="http://www.w3.org/2000/svg">
<path fill-rule="evenodd" clip-rule="evenodd" d="M12.1987 2.85333L7.33333 1.33333L2.468 2.85399C2.18972 2.94087 2.00017 3.19847 2 3.49V8.91599C1.99986 10.2388 2.65372 11.4761 3.74667 12.2213L7.33333 14.6667L10.92 12.2207C11.282 11.974 11.5953 11.674 11.8533 11.334L14 11.3333C14.3682 11.3333 14.6667 11.0349 14.6667 10.6667V5.33333C14.6667 4.96514 14.3682 4.66666 14 4.66666H12.6667V3.49C12.6668 3.19823 12.4772 2.94028 12.1987 2.85333ZM3.33333 3.98L7.33333 2.72933L11.3333 3.98V4.66666H6.66667C6.29848 4.66666 6 4.96514 6 5.33333V10.6667C6 11.0349 6.29848 11.3333 6.66667 11.3333H9.85467L7.33333 13.0533L4.498 11.1193L4.372 11.0287C3.71684 10.5237 3.33314 9.7432 3.33333 8.916V3.98ZM7.33333 7.99999V10H13.3333V7.99999H7.33333ZM13.3333 6.66666H7.33333V5.99999H13.3333V6.66666Z" fill="#001018"/>
</svg>

<svg width="16" height="16" fill="none" xmlns="http://www.w3.org/2000/svg"><path fill-rule="evenodd" clip-rule="evenodd" d="m12.199 2.853-4.866-1.52-4.865 1.521A.667.667 0 0 0 2 3.49v5.426a4 4 0 0 0 1.747 3.305l3.586 2.446 3.587-2.446c.362-.247.675-.547.933-.887H14a.667.667 0 0 0 .667-.667V5.333A.667.667 0 0 0 14 4.667h-1.333V3.49c0-.292-.19-.55-.468-.637zM3.333 3.98l4-1.25 4 1.25v.687H6.667A.667.667 0 0 0 6 5.333v5.334c0 .368.298.666.667.666h3.188l-2.522 1.72-2.835-1.934-.126-.09a2.667 2.667 0 0 1-1.039-2.113V3.98zm4 4.02v2h6V8h-6zm6-1.333h-6V6h6v.667z" fill="#001018"/></svg>
